lib/functional/brands/linkedin-logo.svg

<svg xmlns="http://www.w3.org/2000/svg" fill="none" stroke="currentColor" aria-hidden="true" viewBox="0 0 32 32"><g id="Icon-LinkedinLogo"><g clip-path="url(#clip0_11_3867)"><g id="size=md (32px)"><path id="Vector" stroke-linecap="round" stroke-linejoin="round" stroke-width="2" d="M26.5 4.5H5.5C4.94772 4.5 4.5 4.94772 4.5 5.5V26.5C4.5 27.0523 4.94772 27.5 5.5 27.5H26.5C27.0523 27.5 27.5 27.0523 27.5 26.5V5.5C27.5 4.94772 27.0523 4.5 26.5 4.5Z"/><path id="Vector_2" stroke-linecap="round" stroke-linejoin="round" stroke-width="2" d="M15 14V22"/><path id="Vector_3" stroke-linecap="round" stroke-linejoin="round" stroke-width="2" d="M11 14V22"/><path id="Vector_4" stroke-linecap="round" stroke-linejoin="round" stroke-width="2" d="M15 17.5C15 16.5717 15.3687 15.6815 16.0251 15.0251C16.6815 14.3687 17.5717 14 18.5 14C19.4283 14 20.3185 14.3687 20.9749 15.0251C21.6313 15.6815 22 16.5717 22 17.5V22"/><path id="Vector_5" fill="#101828" d="M11 11.5C11.8284 11.5 12.5 10.8284 12.5 10C12.5 9.17157 11.8284 8.5 11 8.5C10.1716 8.5 9.5 9.17157 9.5 10C9.5 10.8284 10.1716 11.5 11 11.5Z"/></g></g></g><defs><clipPath id="clip0_11_3867"><rect width="32" height="32" fill="white" rx="5"/></clipPath></defs></svg>

<svg xmlns="http://www.w3.org/2000/svg" fill="none" stroke="currentColor" aria-hidden="true" viewBox="0 0 32 32"><g clip-path="url(#a)"><path stroke-linecap="round" stroke-linejoin="round" stroke-width="2" d="M26.5 4.5h-21a1 1 0 0 0-1 1v21a1 1 0 0 0 1 1h21a1 1 0 0 0 1-1v-21a1 1 0 0 0-1-1ZM15 14v8m-4-8v8"/><path stroke-linecap="round" stroke-linejoin="round" stroke-width="2" d="M15 17.5a3.5 3.5 0 1 1 7 0V22"/><path fill="#101828" d="M11 11.5a1.5 1.5 0 1 0 0-3 1.5 1.5 0 0 0 0 3Z"/></g><defs><clipPath id="a"><rect width="32" height="32" fill="#fff" rx="5"/></clipPath></defs></svg>
